!!!OTL: O Czialo Boga zywego
**kern
*staff1
=1-
*clefF3
*k[]
*met(c|)
*M2/2
1F
1F
=2
1F
1D
=3
1C
0F
1A
=4
0G
=5
0C
=6
!!linebreak:original
1F
1F
=7
1F
1C
=8
1F
1F
=9
1E
1F
=10
0C
=11
0F
!!linebreak:original
=12
1F
1F
=13
1D
1D
=14
0F
=15
0G
=16
1D
1C
=17
0G
=18
!LO:TX:Y=-40:t=P
0C
!!linebreak:original
=19
1C
1C
=20
1F
1E
=21
0F
=22
0G
=23
1F
0E
1F
=24
0C
=25
0F
==
*-
!!title: @{OTL}, @{GTL}, ed. @{ENC}
!!!pag:
!!!GTL: Hymnbook D
!!!EFL: 
!!!YEM: Creative Commons CC/BY/NC/SA 4.0
!!!ENC: Marcin Konik
!!!END: 2015-0m-dd
!!!EED: Marcin Konik
!!!EEV: 
!!!ONB: Encoded in vim by Marcin Konik
!!!CharacterEncoding: utf-8
!!!RDF**kern: l=long note in original notation
!!!RDF**kern: i=editorial accidental
!!muse2ps: z14jc180F
!!!COM: Anonim
!!!CDT: [?]
!!!TXO: Polish
!!!ODT: 
!!!GTL: Hymnbook D
!!!ARL: Opactwo św. Wojciecha, Staniątki 
!!!voices:	1
